X: 2
T: Koskisen Sakarin valssi  #2
T: Zachary Koskinen's Waltz
O: trad. Finland
R: waltz
Z: 2013 John Chambers <jc:trillian.mit.edu>
S: handwritten MS of my own from the 1970s
M: 3/4
L: 1/8
K: Dm
A,2 | "Dm"D4 F2 | A2 d2 f2 | "A7"e4 ^c2 | "Dm"d4 f2 | "A7"e2 ^c2 d2 | "C7"f2 g2 ^g2 | "F"a6 | "A7"A6 |
y4  | "Dm"D4 F2 | A2 d2 f2 | "A7"e4 ^c2 | "Dm"d4 f2 | "Gm"e2 g2 b2 | "A7"a2 ^c2 e2 | "Dm"d6- | d4 :|
|: ab | "Dm"a2 f2 d2 | A2 F2 D2 | "A7"^C4 E2 | A4 ga | g2 e2 ^c2 | A2 G2 E2 | "Dm"D4 F2 | A4 ab |
   y4 | "Dm"a2 f2 d2 | A2 F2 D2 | "A7"^C4 E2 | A4 ga | g2 e2 ^c2 | A2 G2 E2 | "(Dm)"D3 EFE | "Dm"D4 :|
|: z2 | "Dm"A6 | d6 | "Gm"B3 cBA | G4 F2 | "A7"E6 | A6 | "Dm"F3 GFE | D6 |
   y4 | "Dm"A6 | "D7"d6 | "Gm"B3 cBA | G4 F2 | "A7"E4 A,2 | F4 E2 | "Dm"D6- | D4 :|
